brandFactory_export/1.Light/Notas_1Light.svg

<?xml version="1.0" encoding="UTF-8"?>
<svg width="24px" height="24px" viewBox="0 0 24 24" version="1.1" xmlns="http://www.w3.org/2000/svg" xmlns:xlink="http://www.w3.org/1999/xlink">
    <title>1.Light/Notas_1Light</title>
    <g id="Symbols" stroke="none" stroke-width="1" fill="none" fill-rule="evenodd">
        <g id="1.Light/Notas_1Light" fill="#5CB615" fill-rule="nonzero">
            <path d="M19.7697479,22.1815126 L19.7697479,7.91932773 L16.7109244,7.91932773 C15.5478992,7.91932773 14.5428571,7.53277311 13.810084,6.82352941 C13.0672269,6.10420168 12.6773109,5.10588235 12.6773109,3.95966387 L12.6773109,0.988235294 L4.48235294,0.988235294 C4.26722689,0.988235294 4.00504202,1.23361345 4.00504202,1.45210084 L4.00504202,22.1815126 C4.00504202,22.4067227 4.25042017,22.6352941 4.48235294,22.6352941 L19.2789916,22.6352941 C19.5344538,22.6352941 19.7697479,22.4201681 19.7697479,22.1815126 L19.7697479,22.1815126 Z M13.6521008,1.20336134 L13.6521008,3.95966387 C13.6521008,4.83697479 13.9445378,5.57983193 14.4823529,6.11092437 C15.0403361,6.64537815 15.8,6.93109244 16.7109244,6.93109244 L19.5142857,6.93109244 L13.6521008,1.20336134 L13.6521008,1.20336134 Z M20.502521,6.51764706 C20.6605042,6.67563025 20.7478992,6.88403361 20.7478992,7.09915966 L20.7478992,22.1815126 C20.7478992,22.9613445 20.0722689,23.6235294 19.2823529,23.6235294 L4.48235294,23.6235294 C3.71260504,23.6235294 3.02689076,22.9512605 3.02689076,22.1815126 L3.02689076,1.45210084 C3.02689076,0.692436975 3.71932773,0 4.48235294,0 L13.4941176,0 C13.7092437,0 13.9042017,0.087394958 14.0621849,0.238655462 L20.502521,6.51764706 Z M17.2184874,13.4420168 C17.5109244,13.1462185 17.6789916,12.7798319 17.6789916,12.3865546 C17.6789916,11.989916 17.5042017,11.5663866 17.2184874,11.2806723 C16.9462185,11.0016807 16.5731092,10.8336134 16.1932773,10.8168067 L16.1260504,10.8168067 C15.8336134,10.8168067 15.4436975,10.9042017 15.0705882,11.2806723 C14.8084034,11.5462185 11.0134454,14.9344538 9.05042017,16.692437 L8.00504202,19.7714286 C7.99495798,19.8117647 8.00504202,19.8521008 8.03529412,19.8722689 L8.10252101,19.912605 C8.11260504,19.912605 8.12268908,19.902521 8.13277311,19.902521 L11.1512605,18.8941176 L11.3361345,18.7361345 C16.1831933,14.4 17.1008403,13.5596639 17.2184874,13.4420168 L17.2184874,13.4420168 Z M17.9109244,10.5781513 C18.3815126,11.0521008 18.6537815,11.7243697 18.6537815,12.3865546 C18.6436975,13.0554622 18.3915966,13.6605042 17.9008403,14.1546218 C17.6756303,14.3697479 15.692437,16.1579832 11.9781513,19.4756303 L11.8302521,19.6134454 C11.712605,19.7142857 11.5848739,19.7915966 11.4504202,19.8319328 L8.44201681,20.8369748 C8.32436975,20.8773109 8.21680672,20.897479 8.09915966,20.897479 C8.07226891,20.897479 8.04201681,20.8773109 8.00168067,20.8773109 C7.98151261,20.8773109 7.95462185,20.887395 7.92436975,20.887395 L5.97142857,20.887395 C5.7092437,20.887395 5.48403361,20.6689076 5.48403361,20.3932773 C5.48403361,20.1277311 5.7092437,19.8991597 5.97142857,19.8991597 L7.03361345,19.8991597 C7.02352941,19.7512605 7.02352941,19.6033613 7.07394958,19.4554622 L7.60168067,17.8957983 L5.96806723,17.8957983 C5.70588235,17.8957983 5.48067227,17.6672269 5.48067227,17.4016807 C5.48067227,17.1226891 5.70588235,16.907563 5.96806723,16.907563 L7.9210084,16.907563 L8.08571429,16.4134454 C8.14285714,16.2352941 8.25042017,16.0672269 8.38823529,15.9495798 C8.78823529,15.5932773 9.17815126,15.2369748 9.57142857,14.8941176 L5.97142857,14.8941176 C5.7092437,14.8941176 5.48403361,14.6655462 5.48403361,14.4 C5.48403361,14.1210084 5.7092437,13.9058824 5.97142857,13.9058824 L10.7008403,13.9058824 C11.5411765,13.1462185 12.3042017,12.4537815 12.9294118,11.892437 L5.97142857,11.892437 C5.7092437,11.892437 5.48403361,11.6739496 5.48403361,11.3983193 C5.48403361,11.1193277 5.7092437,10.9042017 5.97142857,10.9042017 L14.0252101,10.9042017 C14.2201681,10.7260504 14.3478992,10.6184874 14.3781513,10.5781513 C15.487395,9.46218487 17.0436975,9.69747899 17.9109244,10.5781513 Z" id="Notas_1Light"></path>
        </g>
    </g>
</svg>

<svg width="24" height="24" viewBox="0 0 24 24" xmlns="http://www.w3.org/2000/svg"><path d="M19.77 22.182V7.919h-3.06c-1.162 0-2.167-.386-2.9-1.095-.743-.72-1.133-1.718-1.133-2.864V.988H4.482c-.215 0-.477.246-.477.464v20.73c0 .225.245.453.477.453H19.28c.255 0 .49-.215.49-.453zM13.652 1.203V3.96c0 .877.293 1.62.83 2.15.558.535 1.318.821 2.229.821h2.803l-5.862-5.728zm6.85 5.315a.823.823 0 01.246.581v15.083c0 .78-.676 1.442-1.466 1.442h-14.8c-.77 0-1.455-.673-1.455-1.442V1.452C3.027.692 3.719 0 4.482 0h9.012c.215 0 .41.087.568.239l6.44 6.279zm-3.284 6.924c.293-.296.461-.662.461-1.055 0-.397-.175-.82-.46-1.106a1.543 1.543 0 00-1.026-.464h-.067c-.292 0-.682.087-1.055.464-.263.265-4.058 3.653-6.02 5.411l-1.046 3.08c-.01.04 0 .08.03.1l.068.04c.01 0 .02-.01.03-.01l3.018-1.008.185-.158c4.847-4.336 5.765-5.176 5.882-5.294zm.693-2.864c.47.474.743 1.146.743 1.809a2.506 2.506 0 01-.753 1.768c-.225.215-2.209 2.003-5.923 5.32l-.148.138c-.117.101-.245.179-.38.219l-3.008 1.005c-.118.04-.225.06-.343.06-.027 0-.057-.02-.097-.02-.02 0-.047.01-.078.01H5.971a.494.494 0 010-.988h1.063a1.11 1.11 0 01.04-.444l.528-1.56H5.968a.5.5 0 01-.487-.493c0-.28.225-.494.487-.494h1.953l.165-.495c.057-.178.164-.346.302-.463.4-.357.79-.713 1.183-1.056h-3.6a.5.5 0 01-.487-.494c0-.279.225-.494.487-.494h4.73c.84-.76 1.603-1.452 2.228-2.014H5.971a.494.494 0 010-.988h8.054c.195-.178.323-.286.353-.326 1.11-1.116 2.666-.88 3.533 0z" fill="#5CB615" fill-rule="nonzero"/></svg>
